packages/foundations/assets/icons/functional/images/audio & video/skip_forward_24.svg

<svg width="24" height="24" viewBox="0 0 24 24" fill="none" xmlns="http://www.w3.org/2000/svg">
<g clip-path="url(#clip0_2202_589)">
<path fill-rule="evenodd" clip-rule="evenodd" d="M7.044 5C7.443 5 7.842 5.14 8.194 5.376L14.648 10.332C15.188 10.708 15.493 11.342 15.493 12C15.493 12.658 15.188 13.292 14.648 13.668L8.195 18.624C7.84946 18.8634 7.44035 18.9943 7.02 19C5.987 19 5 18.13 5 16.956V7.044C5.00418 6.50319 5.22088 5.98572 5.6033 5.6033C5.98572 5.22088 6.50319 5.00418 7.044 5ZM7 7V17L13.5 12L7 7ZM17.003 17.003V6.973C17.003 6.433 17.45 5.987 17.99 5.987C18.53 5.987 19 6.433 19 6.973V17.003C19 17.543 18.554 17.99 17.99 17.99C17.7286 17.9887 17.4784 17.8843 17.2935 17.6995C17.1087 17.5146 17.0043 17.2644 17.003 17.003Z" fill="#1A1C1F"/>
</g>
<defs>
<clipPath id="clip0_2202_589">
<rect width="24" height="24" fill="white"/>
</clipPath>
</defs>
</svg>

<svg xmlns="http://www.w3.org/2000/svg" width="24" height="24" fill="none"><g clip-path="url(#a)"><path fill="#1A1C1F" fill-rule="evenodd" d="M7.044 5c.399 0 .798.14 1.15.376l6.454 4.956c.54.376.845 1.01.845 1.668s-.305 1.292-.845 1.668l-6.453 4.956c-.346.24-.755.37-1.175.376C5.987 19 5 18.13 5 16.956V7.044A2.06 2.06 0 0 1 7.044 5M7 7v10l6.5-5zm10.003 10.003V6.973c0-.54.447-.986.987-.986s1.01.446 1.01.986v10.03c0 .54-.446.987-1.01.987a.99.99 0 0 1-.987-.987" clip-rule="evenodd"/></g><defs><clipPath id="a"><path fill="#fff" d="M0 0h24v24H0z"/></clipPath></defs></svg>
